packages/dnb-ui-lib/assets/icons/flying_money.svg

<svg width="16" height="16" viewBox="0 0 16 16" fill="none" xmlns="http://www.w3.org/2000/svg">
<path d="M3.7386 7.29564C3.78638 7.30407 3.83408 7.31118 3.88167 7.31701M3.87845 3.61469L2.54157 3.37738C2.08682 3.29719 1.69963 3.06127 1.42704 2.73565M3.84323 7.31408C2.66331 7.10603 2.29199 6.1209 2.29199 5.06857M4.17531 5.43079L2.60588 5.15405C2.49657 5.13478 2.39164 5.1059 2.29199 5.06857M8.18729 12.2614C8.12025 11.8812 8.13619 11.5059 8.22192 11.1547M11.8682 12.1216L12.1056 13.4584C12.1858 13.9135 12.422 14.3009 12.748 14.5736M8.16882 12.1568C8.37688 13.3367 9.36203 13.708 10.4144 13.708M10.0522 11.8247L10.3289 13.3941C10.3482 13.5034 10.377 13.6084 10.4144 13.708M10.4144 13.708C10.6729 14.3981 11.3364 14.8347 12.0181 14.7145L12.748 14.5736M12.748 14.5736C13.1467 14.907 13.6798 15.0688 14.2261 14.9724L14.4829 14.9272L13.18 10.8416C12.7358 9.69997 11.5589 8.98713 10.3289 9.18698M8.22192 11.1547C8.46193 10.1716 9.24896 9.37717 10.2942 9.19286C10.3058 9.19082 10.3173 9.18886 10.3289 9.18698M8.22192 11.1547L5.37539 13.552C5.16391 13.7301 4.84802 13.7027 4.67029 13.4909L1.6259 9.86278C1.44841 9.65125 1.47599 9.33589 1.6875 9.15838L3.88167 7.31701M10.3289 9.18698L13.6124 6.4556C13.8254 6.27847 13.8537 5.96199 13.6757 5.74982L10.6316 2.12206C10.4543 1.91075 10.1394 1.88296 9.92779 2.05995L6.84449 4.63933M3.88167 7.31701C5.27267 7.48742 6.56527 6.56043 6.80714 5.18871C6.83975 5.00376 6.85166 4.81986 6.84449 4.63933M6.84449 4.63933C6.80354 3.60705 6.13921 2.6846 5.15835 2.30295L1.07284 1L1.02756 1.25682C0.931176 1.80341 1.09314 2.33681 1.42704 2.73565M1.42704 2.73565L1.28551 3.46484C1.16531 4.14657 1.60188 4.81007 2.29199 5.06857" stroke="black" stroke-width="1.5" stroke-linecap="round" stroke-linejoin="round"/>
</svg>

<svg width="16" height="16" viewBox="0 0 16 16" fill="none" xmlns="http://www.w3.org/2000/svg"><path d="M3.739 7.296c.047.008.095.015.143.021m-.004-3.702l-1.336-.238a1.872 1.872 0 01-1.115-.641m2.416 4.578c-1.18-.208-1.551-1.193-1.551-2.245m1.883.362l-1.57-.277a1.77 1.77 0 01-.313-.085m5.895 7.192a2.689 2.689 0 01.035-1.106m3.646.967l.238 1.336c.08.456.316.843.642 1.116m-4.58-2.417c.209 1.18 1.194 1.551 2.246 1.551m-.362-1.883l.277 1.57c.02.108.048.213.085.313m0 0c.259.69.922 1.127 1.604 1.006l.73-.14m0 0c.399.333.932.495 1.478.398l.257-.045-1.303-4.085c-.444-1.142-1.621-1.855-2.851-1.655m-2.107 1.968a2.607 2.607 0 012.107-1.968m-2.107 1.968l-2.847 2.397a.5.5 0 01-.705-.061L1.626 9.863a.5.5 0 01.062-.705l2.194-1.841m6.447 1.87l3.283-2.731a.5.5 0 00.064-.706l-3.044-3.628a.5.5 0 00-.704-.062L6.844 4.64M3.882 7.316c1.39.17 2.683-.757 2.925-2.128.033-.185.045-.37.037-.55m0 0a2.635 2.635 0 00-1.686-2.336L1.073 1l-.045.257c-.097.546.065 1.08.399 1.479m0 0l-.141.729c-.12.682.316 1.345 1.006 1.604" stroke="#000" stroke-width="1.5" stroke-linecap="round" stroke-linejoin="round"/></svg>
